X:248
T:The Up And Do
R:Jig
C:Bruce Osborne (Mar. 2006)
S:abc by bosborne@kos.net
M:6/8
L:1/8
K:Amaj
c/B/|A2 A cBA|FAF ECA,|A,CE Ace|cBA B2 c/B/|\
A2 A cBA|FAF ECA,|A,CE Ace|EGB A2:|
|:c/d/|ecA Ace|fdA Adf|ecA Ace|cBA B2 c/d/|\
ecA Ace|fdA Adf|ecA dBG|EFG A2:|
